!!!COM: Hugo Wolf
!!!CNT: Deutscher
!!!TXO: Deutsche 
!!!OTL: Fussreise
!!!ONM: No. 10
!!!ODT: 1888/
!!!LYR: Moericke
!!!ONB: Original key: D major
!!!ENC: Brian Bice
!!!YOR: 65 Songs for voice and piano, International Music Company, 1960
!!NB: Vocal melody and text only encoded.
**kern	**silbe
*clefG2	*
*k[b-]	*
*M4/4	*
=4	=4
2r	.
4r	.
{4cc	{Am
=5	=5
4a	frisch
4a	ge-
4a	-schnitt-
8g	-nen
8a	|
=6	=6
4f	Wan-
4f	-der-
2f	-stab,
=7	=7
4a	wenn
4a	ich
4b-	in
4cc	der
=8	=8
2cc	Fru2-
2g}	-he}
=9	=9
{2.dd	{so
8.dd	durch
16ee	|
=10	=10
4ff	Wa2l-
4cc	-der
4a	zie-
8f	-he,
8a	|
=11	=11
4cc	Hu2-
12cc	-gel
12dd	|
12b-	|
4a	auf
4g	und
=12	=12
2f}	ab:}
2r	.
=16	=16
2r	.
4r	.
{[4cc	{dann,
=17	=17
4cc]	|
4cc	wie's
4cc	Vo2g-
8b-	-lein
8cc	im
=18	=18
2.a	Lau-
4g	-be
=19	=19
4f	sin-
4g	-get
4a	und
8b-	sich
8cc	|
=20	=20
(2cc	ru2hrt,
2g)}	|}
=21	=21
{4dd	{o-
4dd	-der
4dd	wie
4dd	die
=22	=22
4cc	gold-
4ff	-ne
4cc	Trau-
4a	-be
=23	=23
4g	Won-
4ee	-ne-
4ee	-gei-
4dd	-ster
=24	=24
(4cc	spu2rt
4dd)}	|}
{4ee	{in
4ff#	der
=25	=25
4gg	er-
4g	-sten
4.ee	Mor-
8dd	-gen-
=26	=26
2dd	-son-
4cc}	-ne:}
4r	.
=31	=31
{4cc	{so
4cc	fu2hlt
4cc	auch
8b-	mein
8cc	|
=32	=32
4a	al-
4a	-ter,
4a	lie-
4g	-ber
=33	=33
4f	A-
4g	-dam
4a	Herbst
8b-	und
8cc	|
=34	=34
4cc	Fru2h-
8g	-lings-
8a	|
4b-	-fie-
4cc}	-ber,}
=35	=35
{4dd	{gott-
4dd	-be-
4dd	-herz-
4dd	-te,
=36	=36
4cc	nie
4ff	ver-
4cc	-scherz-
4a	-te
=37	=37
4g	Erst-
4ee	-lings
4ee	Pa-
4dd	-ra-
=38	=38
(4cc	-die-
4dd	|
4ee)	|
4ff#	-ses-
=39	=39
(4gg	-won-
4g	|
4.ee	|
8d)	|
=40	=40
2cc}	-ne.}
2r	.
=43	=43
{4g	{Al-
4g	-so
4g	bist
8b-	du
8a	|
=44	=44
4.g	nicht
8f#	so
8f#	schlimm,
8r	.
4a	o
=45	=45
(2cc	al-
4ee-)	|
4dd	-ter
=46	=46
2cc	A-
4bn}	-dam,}
4r	.
=47	=47
{4g	{wie
4g	die
4cc	stren-
4g	-gen
=48	=48
(b-q	Leh-
8a-)	|
8g	|
8a-	-rer
8b-	|
4cc	sa-
4ee-}	gen;}
=51	=51
{4gg	{liebst
4ff	und
4ee	lobst
4dd	du
=52	=52
4.cc	im-
8bn	-mer
4bn	doch,
4r	.
=53	=53
4ee	singst
4dd	und
4cc	prei-
4bn	-sest
=54	=54
4.a	im-
8g#	-mer
2g#}	noch,}
=55	=55
{4e	{wie
4e	an
4e	e-
4dd	-wig
=56	=56
4.cc#	neu-
8bn	-en
4bn	Scho2p-
8dd	-fungs-
8cc#	|
=57	=57
2bn	-ta-
2a}	-gen,}
=58	=58
2r	.
{4b#	{dei-
4cc#	-nen
=59	=59
2.dd	lie-
4dd	-ben
=60	=60
2.dd#	Scho2-
4dd#	-pfer
=61	=61
(4ff#	und
4ee)	|
(4cc#	Er-
4a)	|
=62	=62
(2.cc#	-hal
4bn)	|
=63	=63
2a}	-ter.}
2r	.
=71	=71
{4cc	{Mo2cht
4cc	es
4cc	die-
8b-	-ser
8cc	|
=72	=72
4a	ge-
4a	-ben,
4a	und
4cc	mein
=73	=73
4ff	gan-
4ee	-zes
4dd	Le-
4cc	-ben
=74	=74
4cc	wa2r
8g	im
8a	|
4b-	leich-
4cc	-ten
=75	=75
4dd	Wan-
4dd	-der-
4dd	-schwei-
4dd}	-sse}
=76	=76
{4cc	{ei-
4ff	-ne
4cc	sol-
4a	-che
=77	=77
4cc	Mor-
4dd	-gen-
(4.ee	-rei-
8ff)	|
=78	=78
2.ff}	-se!}
4r	.
*-	*-
